X:20
T: Weaver Flynn Reel
C: Eamon Flynn
Z: B.Black
R: reel
M: 4/4
L: 1/8
K: D
A,|FD (3FEF ADFA |fedf efdB |ADFA dAFD|EA,CE GECE |
FD (3FEF ADFA |fedf efdB | ADFA dAFD | EA,CE D3 :|
B,|(3A,G,A, EA, EFGE|FD D2 FGAB|dA A2 dfab|afdf g2 fe |
dfed BAdB |AdFA EFDF|dFAd FAdF|EA,CE D3 :|
